X: 36191
T: Scottish Horse, The
R: jig
M: 6/8
K: Amixolydian
A|c3 ecA|d>ef a2 f|edc cAe|B3 B<BA|
c3 ecA|d>ef afd|ecA B2e|A3 A<A:|
|:e|a2 e A<Ae|d2 f a2 f|e>dc cAe|B3 B<Be/d/|
[1 ceA eaA|faA dfA|ceA B2 e|A3 A<A:|
[2 c3 ecA|d>ef afd|ecA B2 e|A3 A<A||

